icons/evolvere-blue-folders-flat-vivid-dark-fallback/mimetypes/64/ai.svg

<?xml version="1.0" encoding="UTF-8" standalone="no"?>
<!-- Created with Inkscape (http://www.inkscape.org/) -->

<svg
   xmlns:dc="http://purl.org/dc/elements/1.1/"
   xmlns:cc="http://creativecommons.org/ns#"
   xmlns:rdf="http://www.w3.org/1999/02/22-rdf-syntax-ns#"
   xmlns:svg="http://www.w3.org/2000/svg"
   xmlns="http://www.w3.org/2000/svg"
   xmlns:sodipodi="http://sodipodi.sourceforge.net/DTD/sodipodi-0.dtd"
   xmlns:inkscape="http://www.inkscape.org/namespaces/inkscape"
   version="1.1"
   width="64"
   height="64"
   id="svg13094"
   inkscape:version="0.48.4 r9939"
   sodipodi:docname="ai.svg">
  <sodipodi:namedview
     pagecolor="#ffffff"
     bordercolor="#666666"
     borderopacity="1"
     objecttolerance="10"
     gridtolerance="10"
     guidetolerance="10"
     inkscape:pageopacity="0"
     inkscape:pageshadow="2"
     inkscape:window-width="1920"
     inkscape:window-height="1022"
     id="namedview49"
     showgrid="false"
     inkscape:zoom="10.429825"
     inkscape:cx="43.977952"
     inkscape:cy="28.87586"
     inkscape:window-x="-5"
     inkscape:window-y="23"
     inkscape:window-maximized="1"
     inkscape:current-layer="svg13094" />
  <defs
     id="defs11" />
  <metadata
     id="metadata13099">
    <rdf:RDF>
      <cc:Work
         rdf:about="">
        <dc:format>image/svg+xml</dc:format>
        <dc:type
           rdf:resource="http://purl.org/dc/dcmitype/StillImage" />
        <dc:title />
      </cc:Work>
    </rdf:RDF>
  </metadata>
  <path
     inkscape:connector-curvature="0"
     d="M 4,0 64,0 64,62 4,62 z"
     id="path3960-2"
     style="fill:#cf5921;fill-opacity:1;fill-rule:nonzero" />
  <path
     inkscape:connector-curvature="0"
     style="fill:#5c0000;fill-opacity:0.17547002;fill-rule:nonzero"
     d="M 60,2 60,33 35.6875,62 64,62 64,37 64,6 60,2 z"
     id="path3900-6" />
  <path
     style="color:#000000;fill:#e9733c;fill-opacity:1;fill-rule:nonzero;stroke:none;stroke-width:1;marker:none;visibility:visible;display:inline;overflow:visible;enable-background:accumulate"
     id="path3849"
     d="M 0,2 60,2 60,33 34,64 0,64 z"
     inkscape:connector-curvature="0" />
  <path
     inkscape:connector-curvature="0"
     style="color:#000000;fill:#eec62f;fill-opacity:1;fill-rule:nonzero;stroke:none;stroke-width:1;marker:none;visibility:visible;display:inline;overflow:visible;enable-background:accumulate"
     d="m 18.6875,15.5625 -0.03125,4.40625 c 0,0 0.204589,0.0098 0.625,0.03125 0.420411,0.0215 1.037937,0.07128 1.8125,0.25 0.774563,0.178715 1.710709,0.475671 2.6875,1 0.976791,0.52433 2.014351,1.281876 2.875,2.3125 0.679812,0.794856 1.256334,1.775078 1.65625,2.90625 0.399917,1.131172 0.598453,2.392738 0.53125,3.6875 -0.05753,1.122119 -0.330417,2.295136 -0.84375,3.375 -0.513333,1.079864 -1.242269,2.083816 -2.1875,2.84375 -1.462033,1.20714 -3.52613,1.87665 -5.5,1.75 C 18.369383,38.001205 16.435189,37.016635 15.28125,35.5 14.334866,34.289932 13.874363,32.69019 14,31.1875 c 0.06535,-0.78238 0.315444,-1.577337 0.6875,-2.25 0.372056,-0.672662 0.873734,-1.24422 1.46875,-1.65625 0.928697,-0.663182 2.125064,-0.906271 3.1875,-0.78125 0.580304,0.06882 1.125766,0.265612 1.59375,0.5625 0.467984,0.296888 0.844927,0.687987 1.09375,1.125 0.375741,0.629687 0.466196,1.383536 0.34375,2.03125 -0.07186,0.371291 -0.247099,0.710265 -0.46875,0.96875 -0.22165,0.258484 -0.50462,0.451341 -0.78125,0.53125 -0.165641,0.06479 -0.349395,0.04049 -0.53125,0 -0.181855,-0.04049 -0.352015,-0.111485 -0.5,-0.1875 -0.166205,-0.103545 -0.273621,-0.173184 -0.3125,-0.28125 -0.07348,-0.117482 -0.03411,-0.273429 0,-0.375 0.03411,-0.101572 0.05257,-0.166182 0.03125,-0.1875 -0.02132,-0.02132 -0.09021,-0.02269 -0.1875,0.0625 -0.04864,0.04259 -0.07939,0.09831 -0.125,0.1875 -0.04561,0.08919 -0.102089,0.220743 -0.09375,0.375 0.03248,0.229129 0.19008,0.487595 0.40625,0.65625 0.155673,0.14015 0.343943,0.278118 0.59375,0.375 0.249807,0.09688 0.565044,0.141493 0.90625,0.09375 0.421098,-0.07501 0.842296,-0.267039 1.21875,-0.59375 0.376453,-0.326711 0.705976,-0.783376 0.875,-1.34375 0.266413,-0.856297 0.248465,-1.905762 -0.21875,-2.90625 -0.311983,-0.647519 -0.761711,-1.243171 -1.375,-1.71875 -0.613289,-0.475579 -1.384971,-0.838482 -2.21875,-1 -1.439093,-0.282441 -3.078843,-0.05145 -4.5,0.8125 -0.873694,0.542461 -1.637022,1.261614 -2.21875,2.15625 -0.581729,0.894636 -0.966345,1.949355 -1.125,3.0625 -0.295118,2.057712 0.174367,4.289124 1.4375,6.125 1.559824,2.224443 4.110115,3.719417 6.875,4.03125 2.728664,0.308471 5.534257,-0.45387 7.75,-2.09375 1.389182,-1.047168 2.49161,-2.374688 3.28125,-3.84375 0.78964,-1.469062 1.256841,-3.085545 1.40625,-4.6875 0.168306,-1.805474 -0.03695,-3.555434 -0.53125,-5.15625 -0.494304,-1.600816 -1.250522,-3.04425 -2.1875,-4.25 -1.194943,-1.512951 -2.604708,-2.615642 -3.9375,-3.40625 -1.332792,-0.790608 -2.60817,-1.271945 -3.6875,-1.5625 -1.07933,-0.290555 -1.961316,-0.417106 -2.5625,-0.46875 C 18.992566,15.542106 18.6875,15.5625 18.6875,15.5625 z"
     id="path3031-0" />
  <path
     inkscape:connector-curvature="0"
     style="color:#000000;fill:#eaedee;fill-opacity:1;fill-rule:nonzero;stroke:none;stroke-width:1;marker:none;visibility:visible;display:inline;overflow:visible;enable-background:accumulate"
     d="M 17.0625,7.28125 C 14.617152,7.344561 12.24747,7.7837219 10.0625,8.5 7.1492065,9.4550375 4.5434499,10.903988 2.375,12.65625 1.5015287,13.37297 0.72472293,14.132927 0,14.90625 L 0,29.9375 C 0.044841,29.589712 0.11547511,29.201369 0.1875,28.8125 0.47560032,27.257022 1.0103756,25.387653 2,23.40625 c 0.9896251,-1.981404 2.4460751,-4.06471 4.5,-5.8125 1.5205057,-1.321646 3.3996597,-2.469646 5.5625,-3.25 2.16284,-0.780354 4.60637,-1.21107 7.09375,-1.09375 2.150319,0.100175 4.358802,0.657144 6.4375,1.625 2.078697,0.967856 4.003576,2.35067 5.5,4.15625 2.420602,2.857882 3.78325,6.878658 3.5625,10.8125 -0.213074,3.829696 -2.04446,7.708989 -5.03125,10.09375 -2.457804,2.005894 -5.786445,2.999402 -8.9375,2.78125 C 17.463509,42.496529 14.346957,40.88628 12.5,38.4375 10.950092,36.428735 10.251517,33.796306 10.46875,31.375 c 0.115581,-1.287567 0.50987,-2.536066 1.125,-3.625 0.615129,-1.088934 1.439459,-2.025594 2.40625,-2.6875 1.535346,-1.078269 3.471367,-1.465302 5.1875,-1.25 0.952338,0.120414 1.8686,0.44633 2.625,0.9375 0.7564,0.49117 1.351125,1.131468 1.75,1.84375 0.60672,1.04214 0.740853,2.298375 0.53125,3.34375 -0.125236,0.610915 -0.444088,1.177595 -0.8125,1.59375 -0.368412,0.416155 -0.797634,0.687121 -1.25,0.8125 -0.282128,0.100803 -0.610996,0.07049 -0.90625,0 -0.295253,-0.07049 -0.546664,-0.185382 -0.78125,-0.3125 C 20.074926,31.859932 19.873197,31.683903 19.8125,31.5 19.702068,31.292851 19.783,31.065104 19.84375,30.90625 19.9045,30.747396 19.966691,30.654192 19.9375,30.625 c -0.0292,-0.0292 -0.134077,-0.01131 -0.28125,0.125 -0.07359,0.06817 -0.150282,0.173772 -0.21875,0.3125 -0.06847,0.138729 -0.141363,0.327859 -0.125,0.5625 0.05216,0.34934 0.287635,0.708543 0.625,0.96875 0.245197,0.214424 0.54949,0.415224 0.9375,0.5625 0.388011,0.147276 0.852859,0.23402 1.375,0.15625 0.648753,-0.119105 1.327144,-0.428255 1.90625,-0.9375 0.579106,-0.509245 1.055016,-1.224397 1.3125,-2.09375 0.404202,-1.328669 0.419775,-2.952685 -0.3125,-4.5 -0.484856,-0.99675 -1.23376,-1.922812 -2.1875,-2.65625 -0.953739,-0.733439 -2.139464,-1.285115 -3.4375,-1.53125 -2.224686,-0.426594 -4.763478,-0.07145 -6.96875,1.28125 -1.340957,0.837862 -2.507573,1.985858 -3.40625,3.375 -0.898678,1.389142 -1.5079517,3.042588 -1.75,4.78125 -0.4429654,3.165252 0.2670136,6.607218 2.25,9.46875 1.194302,1.695092 2.767867,3.120271 4.59375,4.1875 1.825882,1.067228 3.918477,1.760677 6.09375,2 4.149539,0.457366 8.504036,-0.646995 12,-3.25 4.139936,-3.132146 6.778639,-8.038591 7.25,-13.21875 C 40.068106,25.00225 38.490137,19.694339 35.3125,15.625 33.322279,13.116229 30.813278,11.169924 28.09375,9.78125 25.374221,8.3925757 22.449763,7.5700359 19.53125,7.34375 18.701348,7.27958 17.877616,7.2601463 17.0625,7.28125 z"
     id="path3942-8" />
  <path
     style="font-size:medium;font-style:normal;font-variant:normal;font-weight:normal;font-stretch:normal;text-indent:0;text-align:start;text-decoration:none;line-height:normal;letter-spacing:normal;word-spacing:normal;text-transform:none;direction:ltr;block-progression:tb;writing-mode:lr-tb;text-anchor:start;baseline-shift:baseline;color:#000000;fill:#eaedee;fill-opacity:1;fill-rule:nonzero;stroke:none;stroke-width:1;marker:none;visibility:visible;display:inline;overflow:visible;enable-background:accumulate;font-family:Sans;-inkscape-font-specification:Sans"
     d="m 4.7965498,35.147554 c -0.7245503,-0.724549 -1.8974948,-0.74125 -2.6220444,-0.0167 -0.7245496,0.724551 -0.7245496,1.914196 8e-7,2.638746 0.673692,0.673692 1.7415957,0.712723 2.4717352,0.133607 l 4.9601724,4.960172 -0.450925,0.450925 -0.267214,0.267215 0.267215,0.267214 1.6867912,1.686794 0.267215,0.267214 0.267214,-0.267215 0.450925,-0.450924 12.609193,12.609192 c -0.578459,0.730126 -0.539843,1.798286 0.133608,2.471736 0.724549,0.724551 1.914195,0.724551 2.638745,0 0.72455,-0.724549 0.707849,-1.897493 -0.0167,-2.622043 -0.587672,-0.587673 -1.471996,-0.695501 -2.171119,-0.334019 L 12.362066,44.550172 12.81299,44.099247 13.080205,43.832032 12.81299,43.564818 11.126197,41.878025 10.858982,41.610811 10.591768,41.878025 10.140843,42.32895 5.1305691,37.318674 c 0.3638008,-0.699699 0.254678,-1.582422 -0.3340186,-2.171119 z m -0.5344295,0.53443 c 0.3449474,0.344947 0.413969,0.843377 0.2171118,1.252569 l -0.400822,0.400822 0.033399,0.03341 c -0.4332479,0.299558 -1.0162276,0.253041 -1.4028769,-0.133607 -0.4357224,-0.435723 -0.4357239,-1.134163 0,-1.569886 0.4357232,-0.435724 1.1174622,-0.419023 1.5531853,0.0167 z M 26.65805,58.077915 c 0.435724,0.435723 0.452425,1.117462 0.0167,1.553186 -0.435724,0.435723 -1.134163,0.435722 -1.569886,0 -0.435723,-0.435723 -0.435724,-1.134163 0,-1.569887 0.435723,-0.435723 1.117462,-0.419022 1.553184,0.0167 z m -15.799068,-15.398246 1.152364,1.152363 -0.90185,0.901849 -1.1523625,-1.152363 0.9018485,-0.901849 z"
     id="path4178-7"
     inkscape:connector-curvature="0" />
  <path
     inkscape:connector-curvature="0"
     d="M 34,64 60,33 c -2.328567,2.776369 -4.36141,3 -11,3 H 37 v 15 c 0,6.644068 0.04437,9.370179 -3,13 z"
     id="path4278-2"
     style="fill:#d9551b;fill-opacity:1;fill-rule:nonzero" />
</svg>

<svg xmlns="http://www.w3.org/2000/svg" viewBox="0 0 64 64"><path d="m4 0h60v62h-60z" fill="#cf5921"/><path d="m60 2v31l-24.313 29h28.313v-25-31l-4-4" fill="#5c0000" fill-opacity=".175"/><g color="#000"><path d="m0 2h60v31l-26 31h-34z" fill="#e9733c"/><path d="m18.688 15.563l-.031 4.406c0 0 .205.01.625.031.42.021 1.038.071 1.813.25.775.179 1.711.476 2.688 1 .977.524 2.01 1.282 2.875 2.313.68.795 1.256 1.775 1.656 2.906.4 1.131.598 2.393.531 3.688-.058 1.122-.33 2.295-.844 3.375-.513 1.08-1.242 2.084-2.188 2.844-1.462 1.207-3.526 1.877-5.5 1.75-1.943-.124-3.877-1.108-5.03-2.625-.946-1.21-1.407-2.81-1.281-4.313.065-.782.315-1.577.688-2.25.372-.673.874-1.244 1.469-1.656.929-.663 2.125-.906 3.188-.781.58.069 1.126.266 1.594.563.468.297.845.688 1.094 1.125.376.63.466 1.384.344 2.031-.072.371-.247.71-.469.969-.222.258-.505.451-.781.531-.166.065-.349.04-.531 0-.182-.04-.352-.111-.5-.188-.166-.104-.274-.173-.313-.281-.073-.117-.034-.273 0-.375.034-.102.053-.166.031-.188-.021-.021-.09-.023-.188.063-.049.043-.079.098-.125.188-.046.089-.102.221-.094.375.032.229.19.488.406.656.156.14.344.278.594.375.25.097.565.141.906.094.421-.075.842-.267 1.219-.594.376-.327.706-.783.875-1.344.266-.856.248-1.906-.219-2.906-.312-.648-.762-1.243-1.375-1.719-.613-.476-1.385-.838-2.219-1-1.439-.282-3.079-.051-4.5.813-.874.542-1.637 1.262-2.219 2.156-.582.895-.966 1.949-1.125 3.063-.295 2.058.174 4.289 1.438 6.125 1.56 2.224 4.11 3.719 6.875 4.03 2.729.308 5.534-.454 7.75-2.094 1.389-1.047 2.492-2.375 3.281-3.844.79-1.469 1.257-3.086 1.406-4.688.168-1.805-.037-3.555-.531-5.156-.494-1.601-1.251-3.044-2.188-4.25-1.195-1.513-2.605-2.616-3.938-3.406-1.333-.791-2.608-1.272-3.688-1.563-1.079-.291-1.961-.417-2.563-.469-.601-.052-.906-.031-.906-.031" fill="#eec62f"/><g fill="#eaedee"><path d="m17.06 7.281c-2.445.063-4.815.502-7 1.219-2.913.955-5.519 2.404-7.688 4.156-.873.717-1.65 1.477-2.375 2.25v15.03c.045-.348.115-.736.188-1.125.288-1.555.823-3.425 1.813-5.406.99-1.981 2.446-4.065 4.5-5.813 1.521-1.322 3.4-2.47 5.563-3.25 2.163-.78 4.606-1.211 7.094-1.094 2.15.1 4.359.657 6.438 1.625 2.079.968 4 2.351 5.5 4.156 2.421 2.858 3.783 6.879 3.563 10.813-.213 3.83-2.044 7.709-5.03 10.09-2.458 2.01-5.786 2.999-8.938 2.781-3.224-.222-6.341-1.832-8.188-4.281-1.55-2.01-2.248-4.641-2.031-7.06.116-1.288.51-2.536 1.125-3.625.615-1.089 1.439-2.026 2.406-2.688 1.535-1.078 3.471-1.465 5.188-1.25.952.12 1.869.446 2.625.938.756.491 1.351 1.131 1.75 1.844.607 1.042.741 2.298.531 3.344-.125.611-.444 1.178-.813 1.594-.368.416-.798.687-1.25.813-.282.101-.611.07-.906 0-.295-.07-.547-.185-.781-.313-.269-.171-.471-.347-.531-.531-.11-.207-.029-.435.031-.594.061-.159.123-.252.094-.281-.029-.029-.134-.011-.281.125-.074.068-.15.174-.219.313-.068.139-.141.328-.125.563.052.349.288.709.625.969.245.214.549.415.938.563.388.147.853.234 1.375.156.649-.119 1.327-.428 1.906-.938.579-.509 1.055-1.224 1.313-2.094.404-1.329.42-2.953-.313-4.5-.485-.997-1.234-1.923-2.188-2.656-.954-.733-2.139-1.285-3.438-1.531-2.225-.427-4.763-.071-6.969 1.281-1.341.838-2.508 1.986-3.406 3.375-.899 1.389-1.508 3.043-1.75 4.781-.443 3.165.267 6.607 2.25 9.469 1.194 1.695 2.768 3.12 4.594 4.188 1.826 1.067 3.918 1.761 6.094 2 4.15.457 8.504-.647 12-3.25 4.14-3.132 6.779-8.04 7.25-13.219.474-5.217-1.104-10.524-4.281-14.594-1.99-2.509-4.499-4.455-7.219-5.844-2.72-1.389-5.644-2.211-8.563-2.438-.83-.064-1.654-.084-2.469-.063"/><path d="m4.797 35.15c-.725-.725-1.897-.741-2.622-.017-.725.725-.725 1.914 0 2.639.674.674 1.742.713 2.472.134l4.96 4.96-.451.451-.267.267.267.267 1.687 1.687.267.267.267-.267.451-.451 12.609 12.609c-.578.73-.54 1.798.134 2.472.725.725 1.914.725 2.639 0 .725-.725.708-1.897-.017-2.622-.588-.588-1.472-.696-2.171-.334l-12.659-12.659.451-.451.267-.267-.267-.267-1.687-1.687-.267-.267-.267.267-.451.451-5.01-5.01c.364-.7.255-1.582-.334-2.171m-.534.534c.345.345.414.843.217 1.253l-.401.401.033.033c-.433.3-1.016.253-1.403-.134-.436-.436-.436-1.134 0-1.57.436-.436 1.117-.419 1.553.017m22.396 22.396c.436.436.452 1.117.017 1.553-.436.436-1.134.436-1.57 0-.436-.436-.436-1.134 0-1.57.436-.436 1.117-.419 1.553.017m-15.799-15.398l1.152 1.152-.902.902-1.152-1.152.902-.902"/></g></g><path d="m34 64l26-31c-2.329 2.776-4.361 3-11 3h-12v15c0 6.644.044 9.37-3 13" fill="#d9551b"/></svg>
